public/assets/icons/file-other-light.svg

<svg width="241" height="118" viewBox="0 0 241 118" fill="none" xmlns="http://www.w3.org/2000/svg">
<path d="M15 60C15 32.3858 37.3858 10 65 10H241V118H15V60Z" fill="#F2F4F8"/>
<g opacity="0.4" filter="url(#filter0_f_228_4060)">
<circle cx="48" cy="48" r="33" fill="#EEA8FD"/>
</g>
<circle cx="48" cy="43" r="33" fill="#EEA8FD"/>
<path d="M62.1753 35.5913C61.2366 32.4086 58.5819 29.7539 55.3992 28.8152C52.9792 28.1112 51.3071 28.1698 50.1484 29.0352C48.7551 30.0765 48.5938 31.9539 48.5938 33.2886V36.9407C48.5938 40.5487 50.2364 42.3821 53.4632 42.3821H57.6726C58.9926 42.3821 60.8846 42.2207 61.926 40.8274C62.8207 39.6834 62.894 38.0113 62.1753 35.5913Z" fill="white"/>
<path d="M58.1301 44.9931C57.7487 44.5531 57.1914 44.3038 56.6194 44.3038H51.3686C48.7872 44.3038 46.6899 42.2064 46.6899 39.6251V34.3743C46.6899 33.8023 46.4405 33.2449 46.0005 32.8636C45.5752 32.4823 44.9885 32.3063 44.4312 32.3796C40.9844 32.8196 37.8164 34.7116 35.7483 37.557C33.6656 40.4171 32.903 43.9078 33.563 47.3985C34.5163 52.4439 38.5497 56.4773 43.6098 57.4307C44.4165 57.592 45.2232 57.6654 46.0298 57.6654C48.6846 57.6654 51.2513 56.844 53.4366 55.2453C56.282 53.1773 58.1741 50.0092 58.6141 46.5625C58.6874 45.9905 58.5114 45.4185 58.1301 44.9931Z" fill="white"/>
<mask id="mask0_228_4060" style="mask-type:alpha" maskUnits="userSpaceOnUse" x="15" y="32" width="226" height="86">
<rect x="15" y="32" width="226" height="86" fill="#D9D9D9"/>
</mask>
<g mask="url(#mask0_228_4060)">
<path d="M15.1325 132.681V114.105C14.3273 105.471 16.2976 88.3456 46.836 86.2132C74.8842 84.2548 80.8534 80.3014 95.5529 54.5306C107.653 33.3174 126.126 32.9157 143.043 32.5477C145.259 32.4995 147.449 32.4519 149.594 32.3582C160.963 31.8613 198.081 31.802 223.5 32.0005C252 32 241 29.7101 241 40.5007V224.287C241 235.175 232.146 244.001 221.225 244.001H34.775C23.8536 244.001 15 235.175 15 224.287V132.681H15.1325Z" fill="white"/>
</g>
<defs>
<filter id="filter0_f_228_4060" x="0.875" y="0.875" width="94.25" height="94.25" filterUnits="userSpaceOnUse" color-interpolation-filters="sRGB">
<feFlood flood-opacity="0" result="BackgroundImageFix"/>
<feBlend mode="normal" in="SourceGraphic" in2="BackgroundImageFix" result="shape"/>
<feGaussianBlur stdDeviation="7.0625" result="effect1_foregroundBlur_228_4060"/>
</filter>
</defs>
</svg>

<svg xmlns="http://www.w3.org/2000/svg" width="241" height="118" fill="none"><path fill="#F2F4F8" d="M15 60c0-27.614 22.386-50 50-50h176v108H15z"/><g filter="url(#a)" opacity=".4"><circle cx="48" cy="48" r="33" fill="#EEA8FD"/></g><circle cx="48" cy="43" r="33" fill="#EEA8FD"/><path fill="#fff" d="M62.175 35.591c-.938-3.182-3.593-5.837-6.776-6.776-2.42-.704-4.092-.645-5.25.22-1.394 1.041-1.555 2.919-1.555 4.254v3.652c0 3.608 1.642 5.441 4.87 5.441h4.209c1.32 0 3.212-.161 4.253-1.555.895-1.144.968-2.816.25-5.236"/><path fill="#fff" d="M58.13 44.993a2 2 0 0 0-1.51-.69h-5.251a4.68 4.68 0 0 1-4.68-4.678v-5.25c0-.573-.248-1.13-.688-1.511a1.99 1.99 0 0 0-1.57-.484c-3.447.44-6.615 2.332-8.683 5.177-2.082 2.86-2.845 6.35-2.185 9.841.953 5.046 4.987 9.08 10.047 10.033.806.161 1.613.234 2.42.234 2.655 0 5.221-.821 7.407-2.42 2.845-2.068 4.737-5.236 5.177-8.682a1.97 1.97 0 0 0-.484-1.57"/><mask id="b" width="226" height="86" x="15" y="32" maskUnits="userSpaceOnUse" style="mask-type:alpha"><path fill="#D9D9D9" d="M15 32h226v86H15z"/></mask><g mask="url(#b)"><path fill="#fff" d="M15.133 132.681v-18.576c-.806-8.634 1.165-25.76 31.703-27.892 28.048-1.958 34.017-5.912 48.717-31.682 12.1-21.214 30.573-21.615 47.49-21.983 2.216-.049 4.406-.096 6.551-.19 11.369-.497 48.487-.556 73.906-.357C252 32 241 29.71 241 40.5v183.786c0 10.888-8.854 19.714-19.775 19.714H34.775c-10.921 0-19.775-8.826-19.775-19.714v-91.606z"/></g><defs><filter id="a" width="94.25" height="94.25" x=".875" y=".875" color-interpolation-filters="sRGB" filterUnits="userSpaceOnUse"><feFlood flood-opacity="0" result="BackgroundImageFix"/><feBlend in="SourceGraphic" in2="BackgroundImageFix" result="shape"/><feGaussianBlur result="effect1_foregroundBlur_228_4060" stdDeviation="7.063"/></filter></defs></svg>
